svgs/duotone/alien-8bit.svg

<svg xmlns="http://www.w3.org/2000/svg" viewBox="0 0 576 512"><!--! Font Awesome Pro 6.3.0 by @fontawesome - https://fontawesome.com License - https://fontawesome.com/license (Commercial License) Copyright 2023 Fonticons, Inc. --><defs><style>.fa-secondary{opacity:.4}</style></defs><path class="fa-primary" d="M160 320h64V224H160V320zM352 224v96h64V224H352z"/><path class="fa-secondary" d="M560 128l-32 .0001c-8.875 0-16 7.125-16 15.1v80h-32V176c0-8.875-7.125-16-16-16H416v-64L464 96C472.9 96 480 88.88 480 80v-32C480 39.12 472.9 32 464 32h-32C423.1 32 416 39.12 416 48V64l-48 .0002c-8.875 0-16 7.125-16 16v48H224v-48c0-8.875-7.125-16-16-16L160 64V48C160 39.12 152.9 32 144 32h-32C103.1 32 96 39.12 96 48v32C96 88.88 103.1 96 112 96L160 96v64H112c-8.875 0-16 7.125-16 16v48H64V144c0-8.875-7.125-15.1-16-15.1l-32-.0001c-8.875 0-16 7.125-16 15.1v128c0 8.875 7.125 16 16 16H64v80c0 8.875 7.125 16 16 16l48 0v80c0 8.875 7.125 16 16 16l96 0c8.875 0 16-7.125 16-15.1v-31.1c0-8.875-7.125-16-16-16H192v-32h192v32h-48c-8.875 0-16 7.125-16 16v31.1c0 8.875 7.125 15.1 16 15.1l96 0c8.875 0 16-7.125 16-16v-80l48 0c8.875 0 16-7.125 16-16v-80h48c8.875 0 16-7.125 16-16v-128C576 135.1 568.9 128 560 128zM224 320H160V224h64V320zM416 320h-64V224h64V320z"/></svg>

<svg xmlns="http://www.w3.org/2000/svg" viewBox="0 0 576 512"><!-- Font Awesome Pro 6.0.0-alpha2 by @fontawesome - https://fontawesome.com License - https://fontawesome.com/license (Commercial License) --><defs><style>.fa-secondary{opacity:.4}</style></defs><path d="M560 128H528C519.125 128 512 135.125 512 144V224H480V176C480 167.125 472.875 160 464 160H416V96H464C472.875 96 480 88.875 480 80V48C480 39.125 472.875 32 464 32H432C423.125 32 416 39.125 416 48V64H368C359.125 64 352 71.125 352 80V128H224V80C224 71.125 216.875 64 208 64H160V48C160 39.125 152.875 32 144 32H112C103.125 32 96 39.125 96 48V80C96 88.875 103.125 96 112 96H160V160H112C103.125 160 96 167.125 96 176V224H64V144C64 135.125 56.875 128 48 128H16C7.125 128 0 135.125 0 144V272C0 280.875 7.125 288 16 288H64V368C64 376.875 71.125 384 80 384H128V464C128 472.875 135.125 480 144 480H240C248.875 480 256 472.875 256 464V432C256 423.125 248.875 416 240 416H192V384H384V416H336C327.125 416 320 423.125 320 432V464C320 472.875 327.125 480 336 480H432C440.875 480 448 472.875 448 464V384H496C504.875 384 512 376.875 512 368V288H560C568.875 288 576 280.875 576 272V144C576 135.125 568.875 128 560 128ZM224 320H160V224H224V320ZM416 320H352V224H416V320Z" class="fa-secondary"/><path d="M160 320H224V224H160V320ZM352 224V320H416V224H352Z" class="fa-primary"/></svg>
